web-magafilio/image/sobre/icon-valores.svg

<svg width="33" height="37" viewBox="0 0 33 37" fill="none" xmlns="http://www.w3.org/2000/svg">
<path d="M32.4634 25.969V2.34402C32.4634 1.42996 31.6899 0.656525 30.7759 0.656525H7.71338C3.98682 0.656525 0.963379 3.67996 0.963379 7.40652V29.9065C0.963379 33.6331 3.98682 36.6565 7.71338 36.6565H30.7759C31.6899 36.6565 32.4634 35.9534 32.4634 34.969V33.844C32.4634 33.3518 32.1821 32.8596 31.8306 32.5784C31.479 31.4534 31.479 28.3596 31.8306 27.305C32.1821 27.0237 32.4634 26.5315 32.4634 25.969ZM9.96338 10.0784C9.96338 9.86746 10.104 9.65652 10.3853 9.65652H25.2915C25.5024 9.65652 25.7134 9.86746 25.7134 10.0784V11.4846C25.7134 11.7659 25.5024 11.9065 25.2915 11.9065H10.3853C10.104 11.9065 9.96338 11.7659 9.96338 11.4846V10.0784ZM9.96338 14.5784C9.96338 14.3675 10.104 14.1565 10.3853 14.1565H25.2915C25.5024 14.1565 25.7134 14.3675 25.7134 14.5784V15.9846C25.7134 16.2659 25.5024 16.4065 25.2915 16.4065H10.3853C10.104 16.4065 9.96338 16.2659 9.96338 15.9846V14.5784ZM27.7524 32.1565H7.71338C6.44775 32.1565 5.46338 31.1721 5.46338 29.9065C5.46338 28.7112 6.44775 27.6565 7.71338 27.6565H27.7524C27.6118 28.9221 27.6118 30.9612 27.7524 32.1565Z" fill="#FDAA08"/>
</svg>

<svg width="33" height="37" fill="none" xmlns="http://www.w3.org/2000/svg"><path d="M32.463 25.969V2.344c0-.914-.773-1.687-1.687-1.687H7.713a6.752 6.752 0 00-6.75 6.75v22.5a6.752 6.752 0 006.75 6.75h23.063c.914 0 1.687-.704 1.687-1.688v-1.125c0-.492-.28-.984-.632-1.266-.352-1.125-.352-4.218 0-5.273a1.74 1.74 0 00.632-1.336zm-22.5-15.89c0-.212.141-.422.422-.422h14.906c.211 0 .422.21.422.421v1.407c0 .28-.21.421-.422.421H10.385c-.281 0-.422-.14-.422-.421v-1.407zm0 4.5c0-.212.141-.423.422-.423h14.906c.211 0 .422.211.422.422v1.407c0 .28-.21.422-.422.422H10.385c-.281 0-.422-.141-.422-.422v-1.407zm17.79 17.578H7.712a2.221 2.221 0 01-2.25-2.25c0-1.196.985-2.25 2.25-2.25h20.04c-.141 1.265-.141 3.304 0 4.5z" fill="#FDAA08"/></svg>
